assets/icons/sort-by.svg

<svg xmlns="http://www.w3.org/2000/svg" viewBox="0 0 20 20" role="presentation" aria-hidden="true"><path d="M14.1667 16.6668L10.8333 13.3335M5.83333 13.3335V3.3335V13.3335ZM5.83333 3.3335L2.5 6.66683L5.83333 3.3335ZM5.83333 3.3335L9.16667 6.66683L5.83333 3.3335ZM14.1667 6.66683V16.6668V6.66683ZM14.1667 16.6668L17.5 13.3335L14.1667 16.6668Z" stroke="currentColor" stroke-width="1.5" stroke-linecap="round" stroke-linejoin="round"/></svg>

<svg xmlns="http://www.w3.org/2000/svg" aria-hidden="true" viewBox="0 0 20 20"><path stroke="currentColor" stroke-linecap="round" stroke-linejoin="round" stroke-width="1.5" d="m14.167 16.667-3.334-3.334m-5 0v-10zm0-10L2.5 6.668zm0 0 3.334 3.334zm8.334 3.334v10zm0 10 3.333-3.334z"/></svg>
